workspaces/osm/styles/symbols/aerodrome.12.svg

<svg width="12" height="12" version="1.1" viewBox="0 0 12 12" xmlns="http://www.w3.org/2000/svg"><rect id="a" width="12" height="12" fill="none" visibility="hidden"/><path d="m6 0c-0.42264 0.04314-0.59536 0.50129-0.72568 0.84563-0.18793 0.5273-0.30128 1.0853-0.27432 1.6465v1.4766c-1.6667 1.1771-3.3333 2.3542-5 3.5312v1c1.6667-0.41666 3.3333-0.83334 5-1.25v2.4062c-0.66667 0.44792-1.3333 0.89586-2 1.3438v1l3-0.75 3 0.75v-1c-0.66667-0.44792-1.3333-0.89586-2-1.3438v-2.4062c1.6667 0.41666 3.3333 0.83334 5 1.25v-1c-1.6667-1.1771-3.3333-2.3542-5-3.5312-0.0080192-0.68221 0.016283-1.3666-0.012598-2.0474-0.11076-0.61683-0.22651-1.2822-0.65057-1.7696-0.090133-0.086685-0.2085-0.15382-0.33683-0.15176z" fill-rule="evenodd"/></svg>

<?xml version="1.0" encoding="utf-8"?>
<svg xmlns="http://www.w3.org/2000/svg" width="12" height="12" viewBox="0 0 12 12">
	<rect width="12" height="12" x="0" y="0" id="canvas" style="fill:none;stroke:none;visibility:hidden"/>
	<path fill-rule="evenodd" d="M 6 0 C 5.254644 0 5 2 5 2 L 5 3.96875 L 0 7.5 L 0 8.5 L 5 7.25 L 5 9.65625 L 3 11 L 3 12 L 6 11.25 L 9 12 L 9 11 L 7 9.65625 L 7 7.25 L 12 8.5 L 12 7.5 L 7 3.96875 L 7 2 C 7 2 6.745356 0 6 0 z"/>
</svg>
